icons/op-gitlab-pipeline-status-pending-16.svg

<svg width="16" height="16" viewBox="0 0 16 16" fill="none" xmlns="http://www.w3.org/2000/svg">

<path fill-rule="evenodd" clip-rule="evenodd" d="M2.34315 2.34315C0.842855 3.84344 0 5.87827 0 8C0 10.1217 0.842855 12.1566 2.34315 13.6569C3.84344 15.1571 5.87827 16 8 16C10.1217 16 12.1566 15.1571 13.6569 13.6569C15.1571 12.1566 16 10.1217 16 8C16 5.87827 15.1571 3.84344 13.6569 2.34315C12.1566 0.842855 10.1217 0 8 0C5.87827 0 3.84344 0.842855 2.34315 2.34315ZM14.3352 5.37589C14.6798 6.20783 14.8571 7.09951 14.8571 8C14.8571 9.81863 14.1347 11.5628 12.8487 12.8487C11.5628 14.1347 9.81863 14.8571 8 14.8571C6.18137 14.8571 4.43723 14.1347 3.15127 12.8487C1.8653 11.5628 1.14286 9.81863 1.14286 8C1.14286 7.09951 1.32022 6.20783 1.66483 5.37589C2.00943 4.54394 2.51452 3.78801 3.15127 3.15127C3.78801 2.51452 4.54394 2.00943 5.37589 1.66483C6.20783 1.32022 7.09951 1.14286 8 1.14286C8.90049 1.14286 9.79217 1.32022 10.6241 1.66483C11.4561 2.00943 12.212 2.51452 12.8487 3.15127C13.4855 3.78801 13.9906 4.54394 14.3352 5.37589Z" fill="black"/>
<path d="M5.37143 6.05714C5.37143 5.82857 5.48571 5.71429 5.71429 5.71429H6.74286C6.97143 5.71429 7.08571 5.82857 7.08571 6.05714V9.94286C7.08571 10.1714 6.97143 10.2857 6.74286 10.2857H5.71429C5.48571 10.2857 5.37143 10.1714 5.37143 9.94286V6.05714ZM8.8 6.05714C8.8 5.82857 8.91429 5.71429 9.14286 5.71429H10.1714C10.4 5.71429 10.5143 5.82857 10.5143 6.05714V9.94286C10.5143 10.1714 10.4 10.2857 10.1714 10.2857H9.14286C8.91429 10.2857 8.8 10.1714 8.8 9.94286V6.05714Z" fill="black"/>

</svg>

<svg xmlns="http://www.w3.org/2000/svg" width="16" height="16" viewBox="0 0 16 16"><path d="M2.343 2.343a8 8 0 1 1 11.314 11.315A8 8 0 0 1 2.343 2.343Zm11.992 3.033a6.846 6.846 0 0 0-3.711-3.711 6.851 6.851 0 0 0-5.248 0 6.862 6.862 0 0 0-3.711 3.711 6.857 6.857 0 1 0 12.67 0Z"/><path d="M5.371 6.057c0-.228.115-.343.343-.343h1.029c.228 0 .343.115.343.343v3.886c0 .228-.115.343-.343.343H5.714c-.228 0-.343-.115-.343-.343V6.057Zm3.429 0c0-.228.114-.343.343-.343h1.028c.229 0 .343.115.343.343v3.886c0 .228-.114.343-.343.343H9.143c-.229 0-.343-.115-.343-.343V6.057Z"/></svg>
